assets/img/icons/duotone-icons/Text/Underline.svg

<svg width="24" height="24" viewBox="0 0 24 24" xmlns="http://www.w3.org/2000/svg"><g fill="none" fill-rule="evenodd"><path d="M0 0h24v24H0z"/><path d="M12.12 19.16c-3.34 0-5.72-2.18-5.72-5.68V4.8h2.32v8.74c0 2.2 1.38 3.42 3.4 3.42s3.38-1.22 3.38-3.42V4.8h2.32v8.68c0 3.5-2.36 5.68-5.7 5.68z" fill="#335EEA"/><rect fill="#335EEA" opacity=".3" x="4" y="21" width="16" height="2" rx="1"/></g></svg>

<?xml version="1.0" encoding="UTF-8"?>
<svg width="24px" height="24px" viewBox="0 0 24 24" version="1.1" xmlns="http://www.w3.org/2000/svg" xmlns:xlink="http://www.w3.org/1999/xlink">
    <!-- Generator: Sketch 52.2 (67145) - http://www.bohemiancoding.com/sketch -->
    <title>Stockholm-icons / Text / Underline</title>
    <desc>Created with Sketch.</desc>
    <g id="Stockholm-icons-/-Text-/-Underline" stroke="none" stroke-width="1" fill="none" fill-rule="evenodd">
        <rect id="bound" x="0" y="0" width="24" height="24"></rect>
        <path d="M12.12,19.16 C8.78,19.16 6.4,16.98 6.4,13.48 L6.4,4.8 L8.72,4.8 L8.72,13.54 C8.72,15.74 10.1,16.96 12.12,16.96 C14.14,16.96 15.5,15.74 15.5,13.54 L15.5,4.8 L17.82,4.8 L17.82,13.48 C17.82,16.98 15.46,19.16 12.12,19.16 Z" id="U" fill="#335EEA"></path>
        <rect id="Rectangle" fill="#335EEA" opacity="0.3" x="4" y="21" width="16" height="2" rx="1"></rect>
    </g>
</svg>
